X: 15094
T: Get Your Crap Off The Stage
R: jig
M: 6/8
K: Aminor
|:age dcB|age dcB|age dcB|ABc d2e|
age dcB|age edB|age edB|1 ABc A2e:|2 ABc A2A||
|:B2B ~E3|c2c ~E3|d2d c2c|ABc A2A|
B2B ~E3|c2c ~E3|d2d c2c|1 ABc A2A:|2 ABc A2e||

